packages/tokens/icons/puzzleMissing/size32Px.svg

<svg viewBox="0 0 32 32" fill="none" xmlns="http://www.w3.org/2000/svg" width="1em" height="1em"><mask id="path-1-inside-1_1748_8252" fill="currentColor"><path fill-rule="evenodd" clip-rule="evenodd" d="M9 29C8.44772 29 8 28.5523 8 28L8 25.5C8 25.2239 7.77615 25 7.5 25H7C5.89543 25 5 24.1046 5 23C5 21.8954 5.89543 21 7 21H7.5C7.77615 21 8 20.7761 8 20.5L8 18C8 17.4477 8.44772 17 9 17L18 17C18.5523 17 19 17.4477 19 18L19 21C19 21.5523 18.5523 22 18 22H17C16.4477 22 16 22.4477 16 23C16 23.5523 16.4477 24 17 24H18C18.5523 24 19 24.4477 19 25L19 28C19 28.5523 18.5523 29 18 29H9Z"/></mask><path d="M8 28H9H9H8ZM7 21L7 20H7L7 21ZM8 18H7V18L8 18ZM19 18L20 18V18H19ZM19 21L18 21V21H19ZM18 24V25H18L18 24ZM19 25L18 25V25L19 25ZM19 28H20H19ZM7 28C7 29.1046 7.89543 30 9 30V28H7ZM7 25.5L7 28H9V25.5H7ZM7.5 24H7V26H7.5V24ZM7 24C6.44772 24 6 23.5523 6 23H4C4 24.6569 5.34315 26 7 26V24ZM6 23C6 22.4477 6.44771 22 7 22L7 20C5.34315 20 4 21.3431 4 23H6ZM7 22H7.5L7.5 20H7L7 22ZM7 18L7 20.5L9 20.5L9 18L7 18ZM9 16C7.89544 16 7 16.8954 7 18H9V18V16ZM18 16L9 16V18L18 18V16ZM20 18C20 16.8954 19.1046 16 18 16V18V18H20ZM20 21L20 18L18 18L18 21L20 21ZM18 23C19.1046 23 20 22.1046 20 21H18V23ZM17 23H18V21L17 21V23ZM17 23V21C15.8954 21 15 21.8954 15 23H17ZM17 23H15C15 24.1046 15.8954 25 17 25V23ZM18 23H17V25H18V23ZM20 25C20 23.8954 19.1046 23 18 23L18 25L18 25L20 25ZM20 28L20 25L18 25L18 28H20ZM18 30C19.1046 30 20 29.1046 20 28H18V30ZM9 30H18V28H9V30ZM7.5 22C8.32843 22 9 21.3284 9 20.5L7 20.5C7 20.2239 7.22386 20 7.5 20L7.5 22ZM9 25.5C9 24.6716 8.32843 24 7.5 24V26C7.22386 26 7 25.7761 7 25.5H9Z" fill="currentColor" mask="url(#path-1-inside-1_1748_8252)"/><mask id="path-3-inside-2_1748_8252" fill="currentColor"><path fill-rule="evenodd" clip-rule="evenodd" d="M18 7C18 6.44771 18.4477 6 19 6L22 6L22 5C22 3.89543 22.8954 3 24 3C25.1046 3 26 3.89543 26 5L26 6L29 6C29.5523 6 30 6.44771 30 7L30 17C30 17.5523 29.5523 18 29 18L26 18C25.4477 18 25 17.5523 25 17L25 16C25 15.4477 24.5523 15 24 15C23.4477 15 23 15.4477 23 16L23 17C23 17.5523 22.5523 18 22 18L19 18C18.4477 18 18 17.5523 18 17L18 7Z"/></mask><path d="M19 6L19 7L19 6ZM18 7L17 7L18 7ZM22 6L22 7C22.5523 7 23 6.55228 23 6L22 6ZM22 5L23 5L23 5L22 5ZM26 6L25 6C25 6.26521 25.1054 6.51957 25.2929 6.7071C25.4804 6.89464 25.7348 7 26 7L26 6ZM29 6L29 5L29 5L29 6ZM30 7L31 7L30 7ZM30 17L29 17L30 17ZM29 18L29 19L29 19L29 18ZM26 18L26 17L26 17L26 18ZM25 17L24 17L25 17ZM25 16L26 16L25 16ZM23 16L22 16L23 16ZM23 17L24 17L24 17L23 17ZM22 18L22 17L22 17L22 18ZM19 18L19 19L19 18ZM18 17L19 17L18 17ZM19 5C17.8954 5 17 5.89543 17 7L19 7L19 7L19 5ZM22 5L19 5L19 7L22 7L22 5ZM23 6L23 5L21 5L21 6L23 6ZM23 5C23 4.44772 23.4477 4 24 4L24 2C22.3431 2 21 3.34315 21 5L23 5ZM24 4C24.5523 4 25 4.44771 25 5L27 5C27 3.34315 25.6569 2 24 2L24 4ZM25 5L25 6L27 6L27 5L25 5ZM29 5L26 5L26 7L29 7L29 5ZM31 7C31 5.89543 30.1046 5 29 5L29 7L29 7L31 7ZM31 17L31 7L29 7L29 17L31 17ZM29 19C30.1046 19 31 18.1046 31 17L29 17L29 17L29 19ZM26 19L29 19L29 17L26 17L26 19ZM24 17C24 18.1046 24.8954 19 26 19L26 17L24 17ZM24 16L24 17L26 17L26 16L24 16ZM24 16L26 16C26 14.8954 25.1046 14 24 14L24 16ZM24 16L24 14C22.8954 14 22 14.8954 22 16L24 16ZM24 17L24 16L22 16L22 17L24 17ZM22 19C23.1046 19 24 18.1046 24 17L22 17L22 17L22 19ZM19 19L22 19L22 17L19 17L19 19ZM17 17C17 18.1046 17.8954 19 19 19L19 17L19 17L17 17ZM17 7L17 17L19 17L19 7L17 7Z" fill="currentColor" mask="url(#path-3-inside-2_1748_8252)"/><mask id="path-5-inside-3_1748_8252" fill="currentColor"/><path d="M29.5 17.5L30 17.5L30 17L29.5 17L29.5 17.5ZM29.5 27.5L29 27.5L29.5 27.5ZM18.5 28.5L18 28.5L18 29L18.5 29L18.5 28.5ZM18.5 17.5L18.5 17L18 17L18 17.5L18.5 17.5ZM29 17.5L29 27.5L30 27.5L30 17.5L29 17.5ZM28.5 28L18.5 28L18.5 29L28.5 29L28.5 28ZM19 28.5L19 25L18 25L18 28.5L19 28.5ZM19 21L19 17.5L18 17.5L18 21L19 21ZM27.4961 18L29.5 18L29.5 17L27.4961 17L27.4961 18ZM18.5 18L22.1523 18L22.1523 17L18.5 17L18.5 18ZM29 27.5C29 27.7761 28.7761 28 28.5 28L28.5 29C29.3284 29 30 28.3284 30 27.5L29 27.5Z" fill="currentColor" mask="url(#path-5-inside-3_1748_8252)"/><mask id="path-7-inside-4_1748_8252" fill="currentColor"><path fill-rule="evenodd" clip-rule="evenodd" d="M2 3C2 2.44771 2.44772 2 3 2L12 2C12.5523 2 13 2.44772 13 3V5.5H14C15.1046 5.5 16 6.39543 16 7.5C16 8.60457 15.1046 9.5 14 9.5H13V12C13 12.5523 12.5523 13 12 13H9.5V14C9.5 15.1046 8.60457 16 7.5 16C6.39543 16 5.5 15.1046 5.5 14V13H3C2.44771 13 2 12.5523 2 12L2 3Z"/></mask><path d="M13 5.5H12C12 6.05228 12.4477 6.5 13 6.5V5.5ZM13 9.5V8.5C12.4477 8.5 12 8.94772 12 9.5H13ZM9.5 13V12C8.94772 12 8.5 12.4477 8.5 13H9.5ZM5.5 13H6.5C6.5 12.4477 6.05228 12 5.5 12V13ZM3 1C1.89543 1 1 1.89543 1 3H3V3V1ZM12 1L3 1V3L12 3V1ZM14 3C14 1.89543 13.1046 1 12 1V3H14ZM14 5.5V3H12V5.5H14ZM13 6.5H14V4.5H13V6.5ZM14 6.5C14.5523 6.5 15 6.94772 15 7.5L17 7.5C17 5.84315 15.6569 4.5 14 4.5V6.5ZM15 7.5C15 8.05228 14.5523 8.5 14 8.5V10.5C15.6569 10.5 17 9.15685 17 7.5L15 7.5ZM14 8.5H13V10.5H14V8.5ZM14 12V9.5H12V12H14ZM12 14C13.1046 14 14 13.1046 14 12H12V14ZM9.5 14H12V12H9.5V14ZM10.5 14V13H8.5V14H10.5ZM7.5 17C9.15685 17 10.5 15.6569 10.5 14H8.5C8.5 14.5523 8.05228 15 7.5 15L7.5 17ZM4.5 14C4.5 15.6569 5.84315 17 7.5 17L7.5 15C6.94772 15 6.5 14.5523 6.5 14H4.5ZM4.5 13V14H6.5V13H4.5ZM3 14H5.5V12H3V14ZM1 12C1 13.1046 1.89543 14 3 14V12H3H1ZM1 3L1 12H3L3 3H1Z" fill="currentColor" mask="url(#path-7-inside-4_1748_8252)"/></svg>

<svg xmlns="http://www.w3.org/2000/svg" fill="none" viewBox="0 0 32 32" width="1em" height="1em"><mask id="iconsPuzzleMissingSize32Px__a" fill="#fff"><path fill-rule="evenodd" d="M9 29a1 1 0 0 1-1-1v-2.5a.5.5 0 0 0-.5-.5H7a2 2 0 1 1 0-4h.5a.5.5 0 0 0 .5-.5V18a1 1 0 0 1 1-1h9a1 1 0 0 1 1 1v3a1 1 0 0 1-1 1h-1a1 1 0 1 0 0 2h1a1 1 0 0 1 1 1v3a1 1 0 0 1-1 1H9Z" clip-rule="evenodd"/></mask><path fill="currentColor" d="M8 28h1-1Zm-1-7v-1 1Zm1-3H7h1Zm11 0h1-1Zm0 3h-1 1Zm-1 3v1-1Zm1 1h-1 1Zm0 3h1-1ZM7 28a2 2 0 0 0 2 2v-2H7Zm0-2.5V28h2v-2.5H7Zm.5-1.5H7v2h.5v-2ZM7 24a1 1 0 0 1-1-1H4a3 3 0 0 0 3 3v-2Zm-1-1a1 1 0 0 1 1-1v-2a3 3 0 0 0-3 3h2Zm1-1h.5v-2H7v2Zm0-4v2.5h2V18H7Zm2-2a2 2 0 0 0-2 2h2v-2Zm9 0H9v2h9v-2Zm2 2a2 2 0 0 0-2-2v2h2Zm0 3v-3h-2v3h2Zm-2 2a2 2 0 0 0 2-2h-2v2Zm-1 0h1v-2h-1v2Zm0 0v-2a2 2 0 0 0-2 2h2Zm0 0h-2a2 2 0 0 0 2 2v-2Zm1 0h-1v2h1v-2Zm2 2a2 2 0 0 0-2-2v2h2Zm0 3v-3h-2v3h2Zm-2 2a2 2 0 0 0 2-2h-2v2Zm-9 0h9v-2H9v2Zm-1.5-8A1.5 1.5 0 0 0 9 20.5H7a.5.5 0 0 1 .5-.5v2ZM9 25.5A1.5 1.5 0 0 0 7.5 24v2a.5.5 0 0 1-.5-.5h2Z" mask="url(#iconsPuzzleMissingSize32Px__a)"/><mask id="iconsPuzzleMissingSize32Px__b" fill="#fff"><path fill-rule="evenodd" d="M18 7a1 1 0 0 1 1-1h3V5a2 2 0 1 1 4 0v1h3a1 1 0 0 1 1 1v10a1 1 0 0 1-1 1h-3a1 1 0 0 1-1-1v-1a1 1 0 1 0-2 0v1a1 1 0 0 1-1 1h-3a1 1 0 0 1-1-1V7Z" clip-rule="evenodd"/></mask><path fill="currentColor" d="M19 6v1-1Zm-1 1h-1 1Zm4-1v1a1 1 0 0 0 1-1h-1Zm0-1h1-1Zm4 1h-1a1 1 0 0 0 1 1V6Zm3 0V5v1Zm1 1h1-1Zm0 10h-1 1Zm-1 1v1-1Zm-3 0v-1 1Zm-1-1h-1 1Zm0-1h1-1Zm-2 0h-1 1Zm0 1h1-1Zm-1 1v-1 1Zm-3 0v1-1Zm-1-1h1-1Zm1-12a2 2 0 0 0-2 2h2V5Zm3 0h-3v2h3V5Zm1 1V5h-2v1h2Zm0-1a1 1 0 0 1 1-1V2a3 3 0 0 0-3 3h2Zm1-1a1 1 0 0 1 1 1h2a3 3 0 0 0-3-3v2Zm1 1v1h2V5h-2Zm4 0h-3v2h3V5Zm2 2a2 2 0 0 0-2-2v2h2Zm0 10V7h-2v10h2Zm-2 2a2 2 0 0 0 2-2h-2v2Zm-3 0h3v-2h-3v2Zm-2-2a2 2 0 0 0 2 2v-2h-2Zm0-1v1h2v-1h-2Zm0 0h2a2 2 0 0 0-2-2v2Zm0 0v-2a2 2 0 0 0-2 2h2Zm0 1v-1h-2v1h2Zm-2 2a2 2 0 0 0 2-2h-2v2Zm-3 0h3v-2h-3v2Zm-2-2a2 2 0 0 0 2 2v-2h-2Zm0-10v10h2V7h-2Z" mask="url(#iconsPuzzleMissingSize32Px__b)"/><mask id="iconsPuzzleMissingSize32Px__c" fill="#fff"/><path fill="currentColor" d="M29.5 17.5h.5V17h-.5v.5Zm0 10H29h.5Zm-11 1H18v.5h.5v-.5Zm0-11V17H18v.5h.5Zm10.5 0v10h1v-10h-1ZM28.5 28h-10v1h10v-1Zm-9.5.5V25h-1v3.5h1Zm0-7.5v-3.5h-1V21h1Zm8.496-3H29.5v-1h-2.004v1ZM18.5 18h3.652v-1H18.5v1ZM29 27.5a.5.5 0 0 1-.5.5v1a1.5 1.5 0 0 0 1.5-1.5h-1Z" mask="url(#iconsPuzzleMissingSize32Px__c)"/><mask id="iconsPuzzleMissingSize32Px__d" fill="#fff"><path fill-rule="evenodd" d="M2 3a1 1 0 0 1 1-1h9a1 1 0 0 1 1 1v2.5h1a2 2 0 1 1 0 4h-1V12a1 1 0 0 1-1 1H9.5v1a2 2 0 1 1-4 0v-1H3a1 1 0 0 1-1-1V3Z" clip-rule="evenodd"/></mask><path fill="currentColor" d="M13 5.5h-1a1 1 0 0 0 1 1v-1Zm0 4v-1a1 1 0 0 0-1 1h1ZM9.5 13v-1a1 1 0 0 0-1 1h1Zm-4 0h1a1 1 0 0 0-1-1v1ZM3 1a2 2 0 0 0-2 2h2V1Zm9 0H3v2h9V1Zm2 2a2 2 0 0 0-2-2v2h2Zm0 2.5V3h-2v2.5h2Zm-1 1h1v-2h-1v2Zm1 0a1 1 0 0 1 1 1h2a3 3 0 0 0-3-3v2Zm1 1a1 1 0 0 1-1 1v2a3 3 0 0 0 3-3h-2Zm-1 1h-1v2h1v-2Zm0 3.5V9.5h-2V12h2Zm-2 2a2 2 0 0 0 2-2h-2v2Zm-2.5 0H12v-2H9.5v2Zm1 0v-1h-2v1h2Zm-3 3a3 3 0 0 0 3-3h-2a1 1 0 0 1-1 1v2Zm-3-3a3 3 0 0 0 3 3v-2a1 1 0 0 1-1-1h-2Zm0-1v1h2v-1h-2ZM3 14h2.5v-2H3v2Zm-2-2a2 2 0 0 0 2 2v-2H1Zm0-9v9h2V3H1Z" mask="url(#iconsPuzzleMissingSize32Px__d)"/></svg>
